X: 8
T: Naughton's
Z: JACKB
S: https://thesession.org/tunes/2622#setting22895
R: reel
M: 4/4
L: 1/8
K: Amix
|A2 EA cded | BG G2 eGdG | EAce a2 ed | cedB BAAG |
A2 EA cded | BG G2 eGdG | EAce a2 ed | cedB BA A2 ||
|a2 ea a2 ba | geef g2 gb | a2 ea a2 ba | gedB EA A2 |
a2 ea a2 ba | geef g2 ga | b2 ba gbag | gedB eBdB ||
